X:390
T: Clonmel
S: B.Breathnach: "Ceol Rince na hEireann" II/85 (gan ainm)
Z: B.Black
L: 1/8
M: 6/8
R: jig
K: Ador
efe ede|f2e d2f|edB d2B|A2B d3|
efe ede|f2e d2f|edB d2B|A3 A3 :|
a2e ede|f2e d2f|edB d2B|1 A2B d2a|
a2e ede|f2e d2f|edB d2B|A3 A3 :|
|2 A2B d3|efe ede|f2e d2f|edB d2B|A3 A3||

